src/icons/import.svg

<svg xmlns="http://www.w3.org/2000/svg"  viewBox="0 0 50 50" width="32px" height="32px"><path d="M 2 -0.03125 C 1.425781 -0.03125 0.96875 0.425781 0.96875 1 L 0.96875 49 C 0.96875 49.574219 1.425781 50.03125 2 50.03125 L 32 50.03125 C 32.574219 50.03125 33.03125 49.574219 33.03125 49 L 33.03125 26 L 18.40625 26 L 25.59375 33.1875 C 25.984375 33.578125 25.984375 34.203125 25.59375 34.59375 C 25.398438 34.789063 25.132813 34.90625 24.875 34.90625 C 24.617188 34.90625 24.382813 34.789063 24.1875 34.59375 L 14.59375 25 L 24.1875 15.40625 C 24.578125 15.015625 25.203125 15.015625 25.59375 15.40625 C 25.984375 15.796875 25.984375 16.421875 25.59375 16.8125 L 18.40625 24 L 33.03125 24 L 33.03125 1 C 33.03125 0.425781 32.574219 -0.03125 32 -0.03125 Z M 33.03125 24 L 33.03125 26 L 48 26 C 48.554688 26 49 25.550781 49 25 C 49 24.449219 48.554688 24 48 24 Z"/></svg>

<svg role="img" viewBox="0 0 50 50" xmlns="http://www.w3.org/2000/svg"><path d="M2-.031C1.426-.031.969.426.969 1v48c0 .574.457 1.031 1.031 1.031h30c.574 0 1.031-.457 1.031-1.031V26H18.406l7.188 7.188a.99.99 0 0 1 0 1.406 1.044 1.044 0 0 1-.719.312c-.258 0-.492-.117-.687-.312L14.594 25l9.594-9.594a.99.99 0 0 1 1.406 0 .99.99 0 0 1 0 1.406L18.406 24h14.625V1c0-.574-.457-1.031-1.031-1.031ZM33.031 24v2H48a1 1 0 1 0 0-2Z"/></svg>
